X:125
T:Dowd's #9
M:4/4
L:1/8
R:reel
D:Highland Sun: Celtic Crossover
K:D
DFAF GFEF|D2FA dABG|F2AF GFGB|AFDB, A,B,CE|
DFAF GFEF|D2FA dABG|F2AF GFGB|AFED FDD2:|
fdd2 g2ag|fdd2 cdeg|fdd2 gfec|dcde fdde|
fgaf gfeg|fedf ecAF|GABG FAdB|1 AFED FDD2:|2 AFDB, A,B,CE||
